X:1
T:Title
%%score ( 1 2 ) { 3 | 4 }
L:1/8
Q:1/4=95
M:4/4
K:Ab
V:1 treble nm="Grand Piano, Soprano"
V:2 treble 
V:3 treble nm="Choir Pad, Canary Wharf, 11.10.11.10"
V:4 bass 
V:1
 [EA]2 [EA]>[EA] [EA]2 E>[EA] | [Ec]2 [Ec]>[Ec] [Ec]>[DB] [CA]2 | [Ae]2 [Ae]>[Ae] [Ae]2 [Ac]>A | %3
w: By~Anonymous * * * * *|||
 [Ac]2 [AB]>[AB] [GB]4 | [Gd]2 [Gd]>[Gd] [Gd]2 [GB]>[Gd] | [Ec]2 [Ec]>[Ec] [Ec]>[DB] [CA]2 | %6
w: |||
 [FB]2 [FB]>[FB] BGE[EG] | [DB]2 [CA]>[CA] [CA]4- | [CA]4 z4 |] %9
w: |||
V:2
 x8 | x8 | x8 | x8 | x8 | x8 | z4 E2 z2 | x8 | x8 |] %9
V:3
 C2 C>C C2 C>C | A,2 A,>A, A,2 E,2 | C2 C>C C2 E>C | =D2 D>D E4 | B,2 B,>B, B,2 D>B, | %5
 A,2 A,>A, A,2 E,2 | F,2 B,>B, G,B,DB, | G,2 A,>E, E,4- | E,4 z4 |] %9
V:4
 A,2 A,>A, A,E, C,>A,, | A,,2 A,,>A,, A,,2 A,,2 | A,2 A,>A, A,2 A,>A, | F,2 B,>B, E,4 | %4
 E,2 E,>E, E,2 E,>E, | z2 A,,>A,, A,,2 A,,2 | D,2 D,>D, E,2 E,E, | E,2 A,,>A,, A,,4- | A,,4 z4 |] %9

